!!!COM: Haydn, Franz Joseph
!!!OTL: String Quartet in B-flat Major
!!!OPS: Opus 71
!!!ONM: No. 1
!!!OMD: Allegro
!!!OMV: 1
!!!SCT: H III:69
!!!SCA: Thematisch-bibliographisches Werkevererzeichnis (A. van Hoboken)
!!!YOR: Trautwein Edition
!!!ENC: Frances Bennion
!!!CDT: 1732/3/31/-1809/5/31/
!!!CNT: Oesterreich
!!!YEC: Copyright (c) 1994, 2000 Center for Computer Assisted Research in the Humanities
!!!YEM: Rights to all derivative editions reserved.
!!!YEM: Refer to licensing agreement for further details.
!!!YEN: United States of America
**kern	**kern	**kern	**kern
*k[b-e-]	*k[b-e-]	*k[b-e-]	*k[b-e-]
*B-:	*B-:	*B-:	*B-:
*clefF4	*clefC3	*clefF	*clefF
*M4/4	*M4/4	*M4/4	*M4/4
8BB-	8f 8B-	8dd 8f	8ff 8b- 8d
8r	8r	8r	8r
8E-	8g 8B-	8cc 8g	8ee- 8g
8r	8r	8r	8r
8F	8f 8B-	8b- 8d	8dd 8f
8r	8r	8r	8r
8FF	8c 8e-	8e- 8a 8c	8e- 8a 8c
8r	8r	8r	8r
=2	=2	=2	=2
4BB- 4D	4B- 4d	4B- 4d 4b-	4d 4B- 4b-
2.r	2.r	2.r	2.r
=3	=3	=3	=3
4BB-	8D	8B-	2ff
.	8r	8r	.
2.r	8B-	8d	.
.	8r	8r	.
.	8d	8f	4dd
.	4.r	4.r	.
.	.	.	4b-
=4	=4	=4	=4
4BB-	8D	8f	4.bb-
.	8r	8r	.
2.r	8B-	8d	.
.	8r	8r	16ddd
.	.	.	16bb-
.	8d	8f	4ff
.	4.r	4r	.
.	.	.	8r
.	.	8f	8dd
=5	=5	=5	=5
1FF	2r	4e-	4cc
.	.	4d	4b
.	4A	4e-	4cc
.	4e-	4c	4a
=6	=6	=6	=6
4BB-	4d	4d	8b-
.	.	.	8r
2.r	2.r	2r	8dd
.	.	.	8r
.	.	.	4ff
.	.	8r	8r
.	.	8f	8dd
=7	=7	=7	=7
1FF	2.A	4e-	4cc
.	.	4d	4b
.	.	4e-	4cc
.	4E-	4c	4a
=8	=8	=8	=8
8BB-	16D	8B-	4b- 4d
.	16F	.	.
8BB-	16B-	8f 8d	.
.	16d	.	.
8BB-	8f	8f 8d	8r
8BB-	8f	8f 8d	16dd
.	.	.	16b-
8BB-	8f	8e- 8c	16a
.	.	.	16b-
8BB-	8f	8e- 8c	16a
.	.	.	16b-
8BB-	8f	8c 8e-	16a
.	.	.	16b-
8BB-	8f	8e- 8c	16cc
.	.	.	16a
=9	=9	=9	=9
8BB-	16D	8d	4b-
.	16F	.	.
8B-	16B-	8d 8b-	.
.	16d	.	.
8BB-	8f	8d 8b-	8r
8BB-	8f	8b- 8d	16ff
.	.	.	16ddd
8BB-	8f	8a 8e-	16ccc
.	.	.	16bb
8BB-	8f	8a 8e-	16ccc
.	.	.	16bb
8BB-	8f	8a 8e-	16ccc
.	.	.	16eee-
8BB-	8f	8e- 8cc	16ccc
.	.	.	16aa
=10	=10	=10	=10
8BB-	8f	8d 8b-	4bb-
8B-	8d	8f	.
8B-	8d	8f	8r
8B-	8d	8f	16dd
.	.	.	16b-
2B-	2e-	2g-	16a
.	.	.	16b-
.	.	.	16a
.	.	.	16b-
.	.	.	16a
.	.	.	16b-
.	.	.	16cc
.	.	.	16a
=11	=11	=11	=11
8BB-	8d	8f	4b-
8B-	8B-	8d	.
8B-	8d	8f	8r
8B-	8d	8f	16ff
.	.	.	16ddd
2B-	2e-	2g-	16ccc
.	.	.	16bb
.	.	.	16ccc
.	.	.	16bb
.	.	.	16ccc
.	.	.	16eee-
.	.	.	16ccc
.	.	.	16aa
=12	=12	=12	=12
8BB-	8d	8f	8bb-
8B-	8d	8f	4bb-
8B-	8d	8f	.
8B-	8d	8f	16ddd
.	.	.	16bb-
8c	8e-	8f	8aa
8c	8e-	8f	4aa
8c	8e-	8f	.
8c	8e-	8f	16ccc
.	.	.	16aa
=13	=13	=13	=13
8B-	8d	8f	8bb-
8B-	4d	4f	4bb-
8B-	.	.	.
8B-	8d	8f	16ddd
.	.	.	16bb-
8F	8c	8e-	8aa
8F	4c	4e-	4aa
8F	.	.	.
8F	8c	8e-	16ccc
.	.	.	16aa
=14	=14	=14	=14
4D	8B-	8d	8bb-
.	4dd	4B-	4ddd
4DD	.	.	.
.	8f#	4B-	8ff#
4EE-	8g	.	8gg
.	4b-	4B-	4bb-
4FF	.	.	.
.	8d	[8B-	8dd
=15	=15	=15	=15
4GG	8c	8B-]	8cc
.	4b-	4B-	4bb-
4FF	.	.	.
.	8c	4B-	8cc
4EE	8d-	.	8dd-
.	4b-	4B-	4bb-
4E	.	.	.
.	8B-	8d-	8b-
=16	=16	=16	=16
4F	4A	4c	8a
.	.	.	8ff
2.r	2r	2r	8ff
.	.	.	8ff
.	.	.	8ff
.	.	.	8ff
.	8r	8r	8ff
.	8b	8dd	8ff
=17	=17	=17	=17
1r	4cc	4ee-	[1ff
.	4b	4dd	.
.	4cc	4ee-	.
.	8r	8r	.
.	8d	8b	.
=18	=18	=18	=18
2..r	4e-	4cc	2..ff]
.	4d	4b	.
.	[2e-	[2cc	.
8F	.	.	8aa-
=19	=19	=19	=19
4A	1e-_	1cc_	4gg-
4B-	.	.	4ff
4.A	.	.	4.gg-
8B-	.	.	8ff
=20	=20	=20	=20
1A	1e-]	1cc]	1gg-
=21	=21	=21	=21
4BB-	8D	8d	2ff
.	8r	8r	.
2.r	8B-	8d	.
.	8r	8r	.
.	8d	8f	4dd
.	4.r	4.r	.
.	.	.	4b-
=22	=22	=22	=22
4BB-	8D	8f	4.bb-
.	8r	8r	.
2.r	8B-	8d	.
.	8r	8r	16ddd
.	.	.	16bb-
.	8d	8f	4ff
.	4.r	4r	.
.	.	.	8r
.	.	8f	8dd
=23	=23	=23	=23
1FF	2.A	4e-	4cc
.	.	4d	4b
.	.	4e-	4cc
.	4e-	4c	4a
=24	=24	=24	=24
4BB-	4d	4d	8b-
.	.	.	8r
2.r	2.r	2r	8dd
.	.	.	8r
.	.	.	4ff
.	.	8r	8r
.	.	8f	8dd
=25	=25	=25	=25
2.F	2.A	4e-	4cc
.	.	4d	4b
.	.	4e-	4cc
4F#	4e-	4c	4a
=26	=26	=26	=26
2.G	4d	4B-	2.b-
.	4c#	4A	.
.	4d	4B-	.
4D	4B	4f	4a-
=27	=27	=27	=27
2.E-	4c	2f	2a-
.	4B	.	.
.	4c	4e-	4g
4E	[4B-	[4d	4g
=28	=28	=28	=28
4F	4B-]	4d]	4f
4G	2B-	2c	4e
4F	.	.	4f
4E	4B-	4c	4g
=29	=29	=29	=29
2F	2B-	1c	2.f
2FF	4A	.	.
.	4E-	.	4A
=30	=30	=30	=30
2BB-	16D	16B-	2B-
.	16B-	16d	.
.	16d	16f	.
.	16B-	16d	.
.	16d	16f	.
.	16B-	16d	.
.	16d	16f	.
.	16B-	16d	.
2r	16D	16B-	4d
.	16B-	16d	.
.	16d	16f	.
.	16B-	16d	.
.	16d	16f	4f
.	16B-	16d	.
.	16d	16f	.
.	16B-	16d	.
=31	=31	=31	=31
1r	16f	16d	4b-
.	16d	16f	.
.	16B-	16b-	.
.	16d	16f	.
.	16B-	16b-	4dd
.	16d	16f	.
.	16B-	16b-	.
.	16d	16f	.
.	16F	16d	4ff
.	16d	16f	.
.	16B-	16b-	.
.	16d	16f	.
.	16B-	16b-	4bb-
.	16d	16f	.
.	16B-	16b-	.
.	16d	16f	.
=32	=32	=32	=32
2CC	16B-	16g	[1eee
.	16g	16b-	.
.	16b-	16cc	.
.	16g	16b-	.
.	16b-	16cc	.
.	16g	16b-	.
.	16b-	16cc	.
.	16g	16b-	.
4EE	16c	16g	.
.	16g	16b-	.
.	16b-	16cc	.
.	16g	16b-	.
4GG	16b-	16cc	.
.	16g	16b-	.
.	16b-	16cc	.
.	16g	16b-	.
=33	=33	=33	=33
4C	16e	16g	8eee]
.	16g	16b-	.
.	16b-	16cc	4eee
.	16g	16b-	.
4E	16b-	16g	.
.	16g	16b-	.
.	16b-	16cc	4eee
.	16g	16b-	.
4G	16c	16g	.
.	16g	16b-	.
.	16b-	16cc	4eee
.	16g	16b-	.
4c	16b-	16g	.
.	16g	16b-	.
.	16b-	16cc	8ccc
.	16g	16b-	.
=34	=34	=34	=34
8FF	16A	16f	1fff
.	16f	16a	.
8AA	16a	16cc	.
.	16f	16a	.
8C	16a	16cc	.
.	16f	16a	.
8E	16a	16cc	.
.	16f	16a	.
8F	16A	16f	.
.	16f	16a	.
8A	16a	16cc	.
.	16f	16a	.
8c	16a	16cc	.
.	16f	16a	.
8f	16a	16cc	.
.	16f	16a	.
=35	=35	=35	=35
8DD	16d	16f	1bb
.	16f	16g	.
8FF	16g	16b	.
.	16f	16g	.
8BB	16d	16f	.
.	16f	16g	.
8D	16d	16f	.
.	16f	16g	.
8F	16d	16f	.
.	16f	16g	.
8B	16g	16b	.
.	16f	16g	.
8d	16d	16f	.
.	16f	16g	.
8D	16d	16f	.
.	16f	16g	.
=36	=36	=36	=36
8CC	16c	16e	2ccc
.	16e	16g	.
8C	16g	16cc	.
.	16e	16g	.
8c	16c	16e	.
.	16e	16g	.
8C	16c	16e	.
.	16e	16g	.
8CC	16d	16f	4.fff
.	16f	16g	.
8C	16g	16b	.
.	16f	16g	.
8c	16d	16f	.
.	16f	16g	.
8C	16d	16f	8bb
.	16f	16g	.
=37	=37	=37	=37
4CC	4e	8e	8ccc
.	.	16c	16cc
.	.	16d	16dd
4.r	4.r	16e	16ee
.	.	16f	16ff
.	.	16g	16gg
.	.	16e	16ee
.	.	8c	8cc
16C	16c	16c	16c
16D	16d	16d	16d
16E	16e	16e	16e
16F	16f	16f	16f
16G	16g	16g	16g
16E	16e	16e	16e
=38	=38	=38	=38
4C	4c	4c	4c
4c	4cc	4cc	4ccc
4CC	4C	4c	4c
4r	4r	4r	4r
=39	=39	=39	=39
8r	8r	2cc	2ccc
8E	8G	.	.
8F	8A	.	.
8G	8B-	.	.
8A	8c	4a	4aa
8B-	8d	.	.
8c	8e	4f	4ff
8d	8f	.	.
=40	=40	=40	=40
8r	8r	2dd	2ddd
8F#	8A	.	.
8G	8B-	.	.
8A	8c	.	.
8B-	8d	4b-	4bb-
8c	8e	.	.
8d	8f	4g	4gg
8e	8g	.	.
=41	=41	=41	=41
4f	2a	2f	8aa
.	.	.	8cc#
2.r	.	.	8dd
.	.	.	8ee
.	4f	4d	8ff
.	.	.	8gg
.	4d	4B-	8aa
.	.	.	8bb-
=42	=42	=42	=42
1r	2b-	2g	8r
.	.	.	8dd#
.	.	.	8ee
.	.	.	8ff
.	4g	4e	8gg
.	.	.	8aa
.	4e	4c	8bb-
.	.	.	8ccc
=43	=43	=43	=43
8r	8f	4r	2aa
8C#	8e	.	.
8D	8f	2a	.
8E	8c#	.	.
8F	4d	.	4ff
8G	.	.	.
8A	4r	4f	4dd
8B-	.	.	.
=44	=44	=44	=44
8r	8a	4d	2ddd
8FF#	8cc	.	.
8GG	8b-	2dd	.
8AA	8f#	.	.
8BB-	4g	.	4bb-
8AA	.	.	.
8BB-	4r	4b-	4gg
8BB	.	.	.
=45	=45	=45	=45
1C	4r	1g	8ff
.	.	.	8ee
.	4E	.	8aa
.	.	.	8gg
.	4G	.	8ff
.	.	.	8ee
.	4B	.	8dd
.	.	.	8cc
=46	=46	=46	=46
1BB-	2c	8r	2cc
.	.	8e	.
.	.	8a	.
.	.	8g	.
.	4G	8f	4ee
.	.	8e	.
.	4E	8d	4gg
.	.	8c	.
=47	=47	=47	=47
1AA	2c	8r	2cc
.	.	8g	.
.	.	8b-	.
.	.	8a	.
.	4A	8g	4ff
.	.	8f	.
.	4F	8e	4aa
.	.	8f	.
=48	=48	=48	=48
1BB-	8C	2c	[1cc
.	8e	.	.
.	8a	.	.
.	8g	.	.
.	8f	4e	.
.	8e	.	.
.	8d	4g	.
.	8c	.	.
=49	=49	=49	=49
2.AA	8r	4f	3..cc_
.	8e	.	.
.	8g	2.r	.
.	8f	.	.
.	8e	.	.
.	.	.	24cc]
.	8d	.	8b-
4BB-	8c	.	8a
.	8B-	.	8g
=50	=50	=50	=50
8C	2.A	2.r	2.f
8C#	.	.	.
8E	.	.	.
8D	.	.	.
2C	.	.	.
.	4B-	4e	4g
=51	=51	=51	=51
8F	8A	8f	16f
.	.	.	16a
8r	8r	8r	16cc
.	.	.	16ff
8F	8c	8b- 8g	16ee
.	.	.	16gg
8r	8r	8r	16ee
.	.	.	16cc
8F	8c	8f 8a	16ff
.	.	.	16ccc
8r	8r	8r	16aa
.	.	.	16ff
8F	8e	8b- 8g	16ee
.	.	.	16gg
8r	8r	8r	16ee
.	.	.	16cc
=52	=52	=52	=52
8FF	8f	8f 8a	16f
.	.	.	16a
8r	8r	8r	16cc
.	.	.	16ff
8F	8c	8b- 8g	16ee
.	.	.	16gg
8r	8r	8r	16ee
.	.	.	16cc
8F	8c	8f 8a	16ff
.	.	.	16ccc
8r	8r	8r	16aa
.	.	.	16ff
8F	8e	8b- 8g	16ee
.	.	.	16gg
8r	8r	8r	16ee
.	.	.	16cc
=53	=53	=53	=53
1F	16f	16a	4ff
.	16a	16cc	.
.	16cc	16ff	.
.	16a	16cc	.
.	16cc	16a	4aa
.	16a	16cc	.
.	16cc	16a	.
.	16a	16cc	.
.	16f	16a	4ccc
.	16a	16cc	.
.	16cc	16ff	.
.	16a	16cc	.
.	16cc	16a	4fff
.	16a	16cc	.
.	16cc	16a	.
.	16a	16cc	.
=54	=54	=54	=54
1D	16d	16b	2aaa
.	16f	16dd	.
.	16b	16ff	.
.	16f	16dd	.
.	16b	16b	.
.	16f	16dd	.
.	16b	16b	.
.	16f	16dd	.
.	16d	16b	2bb
.	16f	16dd	.
.	16b	16ff	.
.	16f	16dd	.
.	16b	16b	.
.	16f	16dd	.
.	16b	16b	.
.	16f	16dd	.
=55	=55	=55	=55
4A 4C 4F	8c	4cc	4ccc
.	16A	.	.
.	16B-	.	.
4r	16c	4.r	2.r
.	16d	.	.
.	16e	.	.
.	16f	.	.
4C 4A 4F	4c	.	.
.	.	16a	.
.	.	16b-	.
4r	4r	16cc	.
.	.	16dd	.
.	.	16ee	.
.	.	16ff	.
=56	=56	=56	=56
4C 4A 4F	1r	4cc	8r
.	.	.	16aa
.	.	.	16bb-
2.r	.	2.r	16ccc
.	.	.	16ddd
.	.	.	16eee
.	.	.	16fff
.	.	.	8ccc
.	.	.	8aa
.	.	.	8ff
.	.	.	8cc
=57	=57	=57	=57
1C	1B-	1e 1G	8b-
.	.	.	8g
.	.	.	8e
.	.	.	8c
.	.	.	8B-
.	.	.	8G
.	.	.	8b-
.	.	.	8e
=58	=58	=58	=58
8F	8A	8f	8r
8r	8r	8r	8f
8C	8e	8g	8r
8r	8r	8r	8g
8FF	8f	8a	8r
4.r	8r	8r	8a
.	8c	8e	16r
.	.	.	16g
.	8r	8r	16f#
.	.	.	16g
=59	=59	=59	=59
1r	4F	8f	16r
.	.	.	16a
.	.	8r	16g#
.	.	.	16a
.	2.r	8g	16r
.	.	.	16b-
.	.	8r	16a
.	.	.	16b-
.	.	8a	16cc
.	.	.	16dd
.	.	4.r	16ee
.	.	.	16ff
.	.	.	16ee
.	.	.	16ff
.	.	.	16ee
.	.	.	16ff
=60	=60	=60	=60
2r	16F	2f	2dd
.	16G	.	.
.	16A	.	.
.	16B-	.	.
.	16A	.	.
.	16B-	.	.
.	16A	.	.
.	16B-	.	.
16GG	4C	2g	2ee
16AA	.	.	.
16BB-	.	.	.
16C	.	.	.
16BB-	4c	.	.
16C	.	.	.
16BB-	.	.	.
16C	.	.	.
=61	=61	=61	=61
8AA	8F	8cc	16ff
.	.	.	16cc
8r	8r	8r	16b
.	.	.	16cc
8E	8b-	8cc	16gg
.	.	.	16cc
8r	8r	8r	16b
.	.	.	16cc
8F	8a	8cc	16aa
.	.	.	16cc
8r	8r	8r	16b
.	.	.	16cc
8G	8e	8cc	16bb-
.	.	.	16gg
8r	8r	8r	16ff
.	.	.	16ee
=62	=62	=62	=62
4A	4f	8cc	8ccc
.	.	8ff	8aa
4.r	4.r	8aa	8ccc
.	.	8ff	8aa
.	.	4aa	4ccc
8f	8a	.	.
8a	8cc	4r	4r
8f	8a	.	.
=63	=63	=63	=63
4a	4cc	8r	8r
.	.	8aa	8ccc
2.r	2.r	8ff	8fff
.	.	8aa	8ccc
.	.	4ff	4fff
.	.	4r	4r
=64	=64	=64	=64
1B	1a-	1ff	1ddd
=65	=65	=65	=65
1c	1b-	1ee	1gg
=66	=66	=66	=66
4F	8a	8ff	4ff
.	16f	16aa	.
.	16e	16gg	.
2r	16d	16ff	2r
.	16c	16ee	.
.	16B-	16dd	.
.	16A	16cc	.
.	16G	16b-	.
.	16F	16a	.
.	16E	16g	.
.	16D	16f	.
4C	16C	16e	8.bb-
.	16E	16g	.
.	16F	16a	.
.	16G	16b-	16ee
=67	=67	=67	=67
8FF	4F	4a	8ff
16F	.	.	16aa
16E	.	.	16gg
16D	2r	2r	16ff
16C	.	.	16ee
16BB-	.	.	16dd
16AA	.	.	16cc
16GG	.	.	16b-
16FF	.	.	16a
16EE	.	.	16g
16DD	.	.	16f
8CC	4g	8.bb-	16e
.	.	.	16g
8C	.	.	16a
.	.	16ee	16b-
=68	=68	=68	=68
8FF	8a	8ff	8a
8r	8r	8r	8r
8C	8cc	8b- 8gg	8cc 8gg 8e
8r	8r	8r	8r
8F	8a	8ff 8a	8aa 8f 8cc
8r	8r	8r	8r
8c	8g 8c	8bb- 8e 8cc	8eee
8r	8r	8r	8r
=69	=69	=69	=69
4F	4a 4c 4f	4aa 4cc 4f	4fff
2.r	2.r	2.r	2.r
=70	=70	=70	=70
1r	1r	2cc	1r
.	.	4a	.
.	.	4f	.
=71	=71	=71	=71
1e-	8r	4.ff	1r
.	8a	.	.
.	8dd	.	.
.	8cc	16aa	.
.	.	16ff	.
.	8b-	4cc	.
.	8a	.	.
.	8g	4r	.
.	8f	.	.
=72	=72	=72	=72
1d	1b-	8r	2ff
.	.	8b-	.
.	.	8ee-	.
.	.	8dd	.
.	.	8cc	4dd
.	.	8b-	.
.	.	8a	4b-
.	.	8b-	.
=73	=73	=73	=73
1A-	8r	[1f	4.bb-
.	8d	.	.
.	8g	.	.
.	8f	.	16ddd
.	.	.	16bb-
.	8e-	.	4ff
.	8d	.	.
.	8c	.	8r
.	8B-	.	8dd
=74	=74	=74	=74
1G	8r	8f]	4cc
.	8d	8f	.
.	8f	8a-	4b
.	8e-	8g	.
.	8d	8f	4cc
.	8c	8e-	.
.	8B	8d	4dd
.	8G	8b	.
=75	=75	=75	=75
8r	2g	4cc	4ee-
8BB	.	.	.
8C	.	2g	2.r
8D	.	.	.
8E-	4e-	.	.
8F	.	.	.
8G	4c	4e-	.
8A	.	.	.
=76	=76	=76	=76
8r	2a-	8f	1r
8BB-	.	8d	.
8C	.	8e-	.
8D	.	8f	.
8E-	4f	8e-	.
8F	.	8d	.
8G	4d	8c	.
8A-	.	8B-	.
=77	=77	=77	=77
4G	8e-	8e-	2bb-
.	8r	8r	.
2.r	8e-	8g	.
.	8r	8r	.
.	8g	8b-	4gg
.	4.r	4.r	.
.	.	.	4ee-
=78	=78	=78	=78
4EE-	8G	8e-	4.eee-
.	8r	8r	.
2.r	8e-	8g	.
.	8r	8r	16ggg
.	.	.	16eee-
.	8g	8b-	4bb-
.	4.r	4r	.
.	.	.	8r
.	.	8b-	8gg
=79	=79	=79	=79
1BB-	4r	4a-	4ff
.	4d-	4g	4ee
.	4d	4a-	4ff
.	4a-	4f	4dd
=80	=80	=80	=80
4E-	4g	4g	8ee-
.	.	.	8r
2.r	2r	2.r	8gg
.	.	.	8r
.	.	.	4bb-
.	8r	.	8r
.	8b-	.	8gg
=81	=81	=81	=81
1BB-	4a-	2.r	4ff
.	4g	.	4ee
.	2a-	.	4ff
.	.	4cc-	4dd
=82	=82	=82	=82
4E-	2.g	2.b-	4ee-
2.r	.	.	4dd
.	.	.	4ee-
.	4f	4a-	4dd-
=83	=83	=83	=83
1r	1e	1g	4cc
.	.	.	4b
.	.	.	4cc
.	.	.	4bb-
=84	=84	=84	=84
8FF	8f	8a-	4aa-
8F	8A-	8c	.
8F	8A-	8c	8r
8F	8A-	8c	16ccc
.	.	.	16ff
8F	8B-	8d-	16ee
.	.	.	16ff
8F	8B-	8d-	16ee
.	.	.	16ff
8F	8B-	8d-	16ee
.	.	.	16ff
8F	8B-	8d-	16gg
.	.	.	16ee
=85	=85	=85	=85
4F	8A-	4c	4ff
.	8a-	.	.
2.r	8a-	8r	4r
.	8a-	16cc	.
.	.	16ff	.
.	8b-	16ee	2ddd-
.	.	16ff	.
.	8b-	16ee	.
.	.	16ff	.
.	8b-	16ee	.
.	.	16ff	.
.	8b-	16gg	.
.	.	16ee	.
=86	=86	=86	=86
8FF	8a-	8ff	4ccc
8F	8A-	8c	.
8F	8A-	8c	8r
8F	8A-	8c	16ccc
.	.	.	16ff
8F	8B-	8d-	16ee
.	.	.	16ff
8F	8B-	8d-	16ee
.	.	.	16ff
8F	8B-	8d-	16ee
.	.	.	16ff
8F	8B-	8d-	16gg
.	.	.	16ee
=87	=87	=87	=87
1F	4A-	4c	16ff
.	.	.	16ccc
.	.	.	16aa-
.	.	.	16ff
.	4B-	4d-	16ee
.	.	.	16ff
.	.	.	16gg
.	.	.	16ee
.	4A-	4c	16ff
.	.	.	16ccc
.	.	.	16aa-
.	.	.	16ff
.	4B-	4d-	16ee
.	.	.	16ff
.	.	.	16gg
.	.	.	16ee
=88	=88	=88	=88
1F	1A-	2c	16ff
.	.	.	16cc
.	.	.	16ff
.	.	.	16gg
.	.	.	16aa-
.	.	.	16bb-
.	.	.	16aa-
.	.	.	16gg
.	.	2d	16ff
.	.	.	16gg
.	.	.	16ff
.	.	.	16ee-
.	.	.	16dd
.	.	.	16ee-
.	.	.	16dd
.	.	.	16cc
=89	=89	=89	=89
1G	1B	1d	16b
.	.	.	16cc
.	.	.	16dd
.	.	.	16ee-
.	.	.	16ff
.	.	.	16ee-
.	.	.	16dd
.	.	.	16cc
.	.	.	16b
.	.	.	16a-
.	.	.	16g
.	.	.	16a-
.	.	.	16g
.	.	.	16f
.	.	.	16e-
.	.	.	16d
=90	=90	=90	=90
8c	8c	8e-	4c
8c	8e-	8g	.
8c	8e-	8g	8r
8c	8e-	8g	16gg
.	.	.	16cc
8c	8f	8a-	16b
.	.	.	16cc
8c	8f	8a-	16b
.	.	.	16cc
8c	8f	8a-	16b
.	.	.	16cc
8c	8f	8a-	16dd
.	.	.	16b
=91	=91	=91	=91
8C	8e-	8g	4cc
8c	8e-	8g	.
8c	8e-	8g	8r
8c	8e-	8g	16gg
.	.	.	16eee-
8c	8f	8a-	16ddd
.	.	.	16ccc
8c	8f	8a-	16bb
.	.	.	16ccc
8c	8f	8a-	16bb
.	.	.	16ccc
8c	8f	8a-	16ddd
.	.	.	16bb
=92	=92	=92	=92
4c	8e-	8g	4ccc
.	8e-	8g	.
2.r	8e-	8g	8r
.	8e-	8g	16gg
.	.	.	16cc
.	2f	2a-	16b
.	.	.	16cc
.	.	.	16b
.	.	.	16cc
.	.	.	16b
.	.	.	16cc
.	.	.	16dd
.	.	.	16b
=93	=93	=93	=93
1r	4e-	4g	16cc
.	.	.	16gg
.	.	.	16ee-
.	.	.	16cc
.	4f	4a-	16b
.	.	.	16cc
.	.	.	16dd
.	.	.	16b
.	4e-	4g	16cc
.	.	.	16gg
.	.	.	16ee-
.	.	.	16cc
.	4f	4a-	16b
.	.	.	16cc
.	.	.	16dd
.	.	.	16b
=94	=94	=94	=94
1C	2e-	2g	16cc
.	.	.	16dd
.	.	.	16ee-
.	.	.	16ff
.	.	.	16ee-
.	.	.	16dd
.	.	.	16cc
.	.	.	16b-
.	16c	2a	16a
.	16d	.	16b-
.	16e-	.	16cc
.	16f	.	16dd
.	16e-	.	16cc
.	16d	.	16b-
.	16c	.	16a
.	16B-	.	16g
=95	=95	=95	=95
1D	16A	2c	16f#
.	16B-	.	16g
.	16c	.	16a
.	16d	.	16b-
.	16c	.	16a
.	16B-	.	16g
.	16A	.	16f#
.	16G	.	16e-
.	2F#	2A	16d
.	.	.	16e-
.	.	.	16d
.	.	.	16e-
.	.	.	16d
.	.	.	16c
.	.	.	16B-
.	.	.	16A
=96	=96	=96	=96
16GG	8G	8B-	4G
16BB-	.	.	.
16D	8r	8r	.
16G	.	.	.
16F#	8d	8a	2.r
16A	.	.	.
16F#	8r	8r	.
16D	.	.	.
16G	8d	8b-	.
16d	.	.	.
16B-	8r	8r	.
16G	.	.	.
16F#	8d	8cc	.
16A	.	.	.
16F#	8r	8r	.
16D	.	.	.
=97	=97	=97	=97
4G	16G	8b-	4r
.	16B-	.	.
.	16d	8r	.
.	16g	.	.
2.r	16f#	8dd	8aa
.	16a	.	.
.	16f#	8r	8r
.	16d	.	.
.	16g	8dd	8bb-
.	16dd	.	.
.	16b-	8r	8r
.	16g	.	.
.	16f#	8dd	8ccc
.	16a	.	.
.	16f#	8r	8r
.	16d	.	.
=98	=98	=98	=98
8GG	4g	8dd	16bb-
.	.	.	16ccc
8r	.	8r	16ddd
.	.	.	16ccc
8BB-	2.r	8d	16bb-
.	.	.	16aa
8r	.	8r	16gg
.	.	.	16ff
8D	.	8g	16ee-
.	.	.	16dd
8r	.	8r	16cc
.	.	.	16b-
8G	.	8b-	16a
.	.	.	16g
8r	.	8r	16ff#
.	.	.	16gg
=99	=99	=99	=99
4D	8d	16a	8ff#
.	.	16cc	.
.	8r	16ee-	8r
.	.	16dd	.
2.r	8f#	16cc	8aa
.	.	16b-	.
.	8r	16a	8r
.	.	16g	.
.	8a	16f#	8ccc
.	.	16e-	.
.	8r	16d	8r
.	.	16e-	.
.	8cc	16d	8ff#
.	.	16c	.
.	8r	16B-	8r
.	.	16A	.
=100	=100	=100	=100
8GG	8b- 8d	8B-	16gg
.	.	.	16bb-
8r	2..r	8r	16ddd
.	.	.	16ccc
8BB-	.	8d	16bb-
.	.	.	16aa
8r	.	8r	16gg
.	.	.	16ff
8D	.	8g	16ee-
.	.	.	16dd
8r	.	8r	16cc
.	.	.	16b-
8G	.	8b-	16a
.	.	.	16g
8r	.	8r	16f#
.	.	.	16g
=101	=101	=101	=101
1C	1A- 1e-	16a-	8a-
.	.	16cc	.
.	.	16ee-	8r
.	.	16dd-	.
.	.	16cc	8cc
.	.	16b-	.
.	.	16a-	8r
.	.	16g	.
.	.	16f	8ee-
.	.	16e-	.
.	.	16d-	8r
.	.	16c	.
.	.	16B-	8aa-
.	.	16A-	.
.	.	16G	8r
.	.	16A-	.
=102	=102	=102	=102
1D 1B	1F	1G	16b
.	.	.	16dd
.	.	.	16ff
.	.	.	16aa-
.	.	.	16gg
.	.	.	16ff
.	.	.	16ee-
.	.	.	16dd
.	.	.	16cc
.	.	.	16b
.	.	.	16dd
.	.	.	16f
.	.	.	16a-
.	.	.	16f
.	.	.	16e-
.	.	.	16d
=103	=103	=103	=103
8E- 8c	8G	8c	16e-
.	.	.	16cc
8r	8r	8r	16cc
.	.	.	16cc
8B	8g	8f	16f
.	.	.	16dd
8r	8r	8r	16dd
.	.	.	16dd
8c	8g	8e-	16g
.	.	.	16ee-
8r	8r	8r	16ee-
.	.	.	16ee-
8B-	8e 8cc	8g	16b-
.	.	.	16ee
8r	8r	8r	16ee
.	.	.	16ee
=104	=104	=104	=104
4A-	8cc 8f	8f	16a-
.	.	.	16cc
.	8r	8r	16ff
.	.	.	16cc
2.r	8e	8b-	16e
.	.	.	16cc
.	8r	8r	16gg
.	.	.	16cc
.	8f	8a-	16f
.	.	.	16cc
.	8r	8r	16aa-
.	.	.	16cc
.	8e-	8cc 8f	16e-
.	.	.	16cc
.	8r	8r	16aa
.	.	.	16cc
=105	=105	=105	=105
4r	8d	8f 8b-	16b-
.	.	.	16bb-
.	8r	8r	16bb-
.	.	.	16bb-
8A	8f	8ee-	16cc
.	.	.	16ccc
8r	8r	8r	16ccc
.	.	.	16ccc
8B-	8f	8dd	16dd
.	.	.	16ddd
8r	8r	8r	16ddd
.	.	.	16ddd
8G	8g	8b-	16ee
.	.	.	16eee
8r	8r	8r	16eee
.	.	.	16eee
=106	=106	=106	=106
4F	8a	16ff	8ff
.	.	16cc	.
.	8r	16a	8fff
.	.	16cc	.
4r	8g	16b-	8eee
.	.	16cc	.
.	8r	16b-	8ggg
.	.	16cc	.
4F	8a	16a	8fff
.	.	16cc	.
.	8r	16a	8ff
.	.	16cc	.
4r	8g	16b-	8ee
.	.	16cc	.
.	8r	16b-	8gg
.	.	16cc	.
=107	=107	=107	=107
8F	8a	8a	16ff
.	.	.	16ccc
8r	8r	8r	16aa
.	.	.	16ff
8F	8g	8b-	16ee
.	.	.	16gg
8r	8r	8r	16ee
.	.	.	16b-
8F	8a	8a	16a
.	.	.	16ccc
8r	8r	8r	16aa
.	.	.	16ff
8F	8g	8b-	16ee
.	.	.	16bb-
8r	8r	8r	16gg
.	.	.	16ee
=108	=108	=108	=108
4FF	4f	4a	16ff
.	.	.	16ee
.	.	.	16gg
.	.	.	16ff
4r	4r	4r	16aa
.	.	.	16gg
.	.	.	16bb-
.	.	.	16aa
4F	4f	4a	16ccc
.	.	.	16bb-
.	.	.	16aa
.	.	.	16bb-
4r	4r	4r	16ccc
.	.	.	16aa
.	.	.	16ddd
.	.	.	16bb-
=109	=109	=109	=109
4FF	8F	4cc 4a	4.eee-
.	4f	.	.
2.r	.	4r	.
.	8g	.	8ddd
.	8a	8f	8ccc
.	8b-	8g	8bb-
.	8cc	8a	8aa
.	8dd	8b-	8gg
=110	=110	=110	=110
8FF	8ee-	8cc	8ff
4F	8cc	8a	4eee-
.	8a	4.f	.
8G	8b-	.	8ddd
8A	4.cc	.	8ccc
8B-	.	8g	8bb-
8c	.	8a	8aa
8d	8b-	8b-	8gg
=111	=111	=111	=111
8e-	4a	8cc	8ff
8c	.	8a	4eee-
4A	4r	8f	.
.	.	8g	8ddd
2r	8f	8a	8ccc
.	8g	8b-	8bb-
.	8a	8cc	8aa
.	8b-	8dd	8gg
=112	=112	=112	=112
4.r	1a	1ee-	1gg-
8FF	.	.	.
8GG-	.	.	.
8GG	.	.	.
8AA-	.	.	.
8AA	.	.	.
=113	=113	=113	=113
4BB-	8D	8B-	2ff
.	8r	8r	.
2.r	8B-	8d	.
.	8r	8r	.
.	8d	8f	4dd
.	4.r	4.r	.
.	.	.	4b-
=114	=114	=114	=114
4BB-	8D	8f	4.bb-
.	8r	8r	.
2.r	8B-	8d	.
.	8r	8r	16ddd
.	.	.	16bb-
.	8d	8f	4ff
.	4.r	4r	.
.	.	.	8r
.	.	8f	8dd
=115	=115	=115	=115
1FF	2.A	4e-	4cc
.	.	4d	4b
.	.	4e-	4cc
.	4e-	4c	4a
=116	=116	=116	=116
4BB-	4d	4d	8b-
.	.	.	8r
2.r	2.r	2r	8dd
.	.	.	8r
.	.	.	4ff
.	.	8r	8r
.	.	8f	8dd
=117	=117	=117	=117
2.FF	4r	4e-	4cc
.	4A-	4d	4b
.	4A	4e-	4cc
4F#	4e-	4c	4a
=118	=118	=118	=118
2.G	4d	4B-	2.b-
.	4c#	4A	.
.	4d	4B-	.
4D	4B	4f	4a-
=119	=119	=119	=119
2.E-	4c	2f	2a-
.	4B	.	.
.	4c	4e-	4g
4E	4d-	4g	4b-
=120	=120	=120	=120
4F	4c	4f	4a
4F#	4e-	4a	4cc
4G	4d	4g	4b-
4A	4f	4cc	4ee-
=121	=121	=121	=121
4B-	2.f	4dd	4dd
4A	.	4cc	8ff
.	.	.	16ee
.	.	.	16ff
4G	.	[2b-	4bb-
4G-	4B-	.	4ee
=122	=122	=122	=122
2F	4f	8b-]	[1ff
.	.	8a	.
.	4A	8dd	.
.	.	8cc	.
2r	4c	8b-	.
.	.	8a	.
.	4A	8g	.
.	.	8f	.
=123	=123	=123	=123
8r	1E-	2f	2ff]
8A	.	.	.
8d	.	.	.
8c	.	.	.
8B-	.	4c	4aa
8A	.	.	.
8G	.	4A	4ccc
8F	.	.	.
=124	=124	=124	=124
8r	1D	1B-	2ff
8B-	.	.	.
8g	.	.	.
8f	.	.	.
8e-	.	.	4bb-
8d	.	.	.
8c	.	.	4ddd
8B-	.	.	.
=125	=125	=125	=125
1E-	2F	8r	1ff
.	.	8a	.
.	.	8dd	.
.	.	8cc	.
.	4A	8b-	.
.	.	8a	.
.	4c	8g	.
.	.	8f	.
=126	=126	=126	=126
2.D	4B-	8r	[3..fff
.	.	8a	.
.	2.r	8cc	.
.	.	8b-	.
.	.	8a	.
.	.	.	24fff]
.	.	8g	8eee-
4E-	.	8f	8ddd
.	.	8e-	8ccc
=127	=127	=127	=127
8F	2.r	2.d	2.bb-
8F#	.	.	.
8A	.	.	.
8G	.	.	.
2F	.	.	.
.	4A	4e-	4ccc
=128	=128	=128	=128
8BB-	8B-	8d	16d
.	.	.	16f
8r	8r	8r	16b-
.	.	.	16dd
8BB-	8a	8c 8e-	16cc
.	.	.	16ee-
8r	8r	8r	16cc
.	.	.	16a
8BB-	8b-	8B- 8d	16b-
.	.	.	16bb-
8r	8r	8r	16ff
.	.	.	16dd
8BB-	8cc	8e- 8a	16cc
.	.	.	16ee-
8r	8r	8r	16cc
.	.	.	16a
=129	=129	=129	=129
8BB-	8b-	8d 8b-	16d
.	.	.	16f
8r	8r	8r	16b-
.	.	.	16dd
8BB-	8a	8c 8e-	16cc
.	.	.	16ee-
8r	8r	8r	16cc
.	.	.	16a
8BB-	8b-	8B- 8d	16b-
.	.	.	16bb-
8r	8r	8r	16ff
.	.	.	16dd
8BB-	8cc	8e- 8a	16cc
.	.	.	16ee-
8r	8r	8r	16cc
.	.	.	16a
=130	=130	=130	=130
1BB-	4b-	16b-	4b-
.	.	16f	.
.	.	16d	.
.	.	16f	.
.	4f	16d	4dd
.	.	16f	.
.	.	16d	.
.	.	16f	.
.	4d	16b-	4ff
.	.	16f	.
.	.	16d	.
.	.	16f	.
.	4B-	16d	4bb-
.	.	16f	.
.	.	16d	.
.	.	16f	.
=131	=131	=131	=131
1GG	1dd	16b-	2ddd
.	.	16g	.
.	.	16e	.
.	.	16g	.
.	.	16e	.
.	.	16g	.
.	.	16e	.
.	.	16g	.
.	.	16b-	2ee
.	.	16cc	.
.	.	16b-	.
.	.	16cc	.
.	.	16b-	.
.	.	16cc	.
.	.	16b-	.
.	.	16cc	.
=132	=132	=132	=132
4BB- 4D 4FF	8dd	4b-	4ff
.	16d	.	.
.	16e-	.	.
4r	16f	4.r	2.r
.	16g	.	.
.	16a	.	.
.	16b-	.	.
4D 4FF 4BB-	4f	.	.
.	.	16dd	.
.	.	16ee-	.
4r	4r	16ff	.
.	.	16gg	.
.	.	16aa	.
.	.	16bb-	.
=133	=133	=133	=133
4FF 4BB- 4D	1r	4ff	8r
.	.	.	16ddd
.	.	.	16ccc
2.r	.	2.r	16bb-
.	.	.	16aa
.	.	.	16gg
.	.	.	16ff
.	.	.	16ee-
.	.	.	16dd
.	.	.	16gg
.	.	.	16ff
.	.	.	16ee-
.	.	.	16dd
.	.	.	16cc
.	.	.	16b-
=134	=134	=134	=134
1FF	1A	1c 1e-	8a
.	.	.	8ee-
.	.	.	8cc
.	.	.	8a
.	.	.	8f
.	.	.	8e-
.	.	.	8c
.	.	.	8A
=135	=135	=135	=135
8BB-	8B-	8d	8B-
8r	8r	8r	8b-
8FF	8A	8cc	8r
8r	8r	8r	8cc
4BB-	8B-	8dd	8r
.	8r	8r	8dd
4r	8f	8a	16r
.	.	.	16cc
.	8r	8r	16b
.	.	.	16cc
=136	=136	=136	=136
1r	4B-	8b-	16r
.	.	.	16dd
.	.	8r	16cc#
.	.	.	16dd
.	2.r	8cc	16r
.	.	.	16ee-
.	.	8r	16dd
.	.	.	16ee-
.	.	8dd	16ff
.	.	.	16gg
.	.	4.r	16aa
.	.	.	16bb-
.	.	.	16aa
.	.	.	16bb-
.	.	.	16aa
.	.	.	16bb-
=137	=137	=137	=137
2r	16B-	4ee-	2gg
.	16c	.	.
.	16d	.	.
.	16e-	.	.
.	16d	4b-	.
.	16e-	.	.
.	16d	.	.
.	16e-	.	.
16C	4F	4ee-	2aa
16D	.	.	.
16E-	.	.	.
16F	.	.	.
16E-	4f	4cc	.
16F	.	.	.
16E-	.	.	.
16F	.	.	.
=138	=138	=138	=138
8D	8f	8b-	16bb-
.	.	.	16ff
8r	8r	8r	16ee
.	.	.	16ff
8A	8f	8cc	16ff
.	.	.	16ee-
8r	8r	8r	16dd
.	.	.	16ee-
8B-	8f	8dd	16dd
.	.	.	16b-
8r	8r	8r	16bb-
.	.	.	16gg
8F	8e-	8a	16ff
.	.	.	16dd
8r	8r	8r	16ee-
.	.	.	16cc
=139	=139	=139	=139
8BB-	8d	8b-	16dd
.	.	.	16b-
8r	8r	8r	16bb-
.	.	.	16gg
8A	8f	8cc	16ff
.	.	.	16dd
8r	8r	8r	16ee-
.	.	.	16cc
8B-	8f	8dd	16dd
.	.	.	16b-
8r	8r	8r	16bb-
.	.	.	16gg
8F	8e-	8a	16ff
.	.	.	16dd
8r	8r	8r	16ee-
.	.	.	16cc
=140	=140	=140	=140
4BB-	4d	8b-	8dd
.	.	8dd	8bb-
4.r	4.r	8ff	8ddd
.	.	8dd	8bb-
.	.	4ff	4ddd
8d	8b-	.	.
8f	8dd	4r	4r
8d	8b-	.	.
=141	=141	=141	=141
4f	4dd	8r	8r
.	.	8bb-	8ddd
2.r	2.r	8ddd	8fff
.	.	8bb-	8ddd
.	.	4ddd	4fff
.	.	4r	4r
=142	=142	=142	=142
1e	1b-	1dd-	1ggg
=143	=143	=143	=143
1c	1F	1e-	1a
=144	=144	=144	=144
4B-	8B-	8d	4b-
.	16b-	16dd	.
.	16a	16cc	.
2r	16g	16b-	2r
.	16f	16a	.
.	16e-	16g	.
.	16d	16f	.
.	16c	16e-	.
.	16B-	16d	.
.	16A	16c	.
.	16G	16B-	.
4FF	8F	8.A	8.ee-
.	8c	.	.
.	.	16e-	16a
=145	=145	=145	=145
4BB-	4d	4d	8b-
.	.	.	16B-
.	.	.	16A
2.r	2.r	2.r	16B-
.	.	.	16c
.	.	.	16d
.	.	.	16e-
.	.	.	16f
.	.	.	16g
.	.	.	16a
.	.	.	16b-
.	.	.	16cc
.	.	.	16dd
.	.	.	16ee-
.	.	.	16ff
=146	=146	=146	=146
2EE-	1B-	1c	1gg
4.EE	.	.	.
16DD	.	.	.
16EE	.	.	.
=147	=147	=147	=147
2FF	8B-	8d	2ff
.	8r	8r	.
.	8B-	8d	.
.	16A	16c	.
.	16B-	16d	.
2r	4d	4f	4dd
.	4r	4r	4b-
=148	=148	=148	=148
2FF	8d	8f	4.bb-
.	8r	8r	.
.	8B-	8d	.
.	16A	16c	16ddd
.	16B-	16d	16bb-
2r	4d	4f	4ff
.	4r	8r	8r
.	.	8f	8dd
=149	=149	=149	=149
2..r	2F	4e-	4cc
.	.	4d	4b
.	4.r	4e-	4cc
.	.	4c	4a
8F	8e-	.	.
=150	=150	=150	=150
4d	4f	4B-	4b-
4c#	4e	2r	3..r
4d	4f	.	.
4B-	4d	8r	.
.	.	.	24r
.	.	8f	8dd
=151	=151	=151	=151
1F	4r	4e-	12cc
.	.	.	12dd
.	.	.	12cc
.	4A-	4d	12b
.	.	.	12cc
.	.	.	12b
.	4A	4e-	12cc
.	.	.	12dd
.	.	.	12ee-
.	4E-	4c	12a
.	.	.	12b-
.	.	.	12cc
=152	=152	=152	=152
4BB-	4D	4d	4b-
4r	4r	4r	4r
2F	2e-	2a	4cc
.	.	.	8.cc
.	.	.	16dd
=153	=153	=153	=153
4B-	4d	4b-	4b-
4r	4r	4r	4r
4e-	2a	4cc	2gg
8.e-	.	8.cc	.
16f	.	16a	.
=154	=154	=154	=154
4d	4b-	4dd	4ff
4r	4r	4r	4r
4F	4f 4cc	4ee- 4f	4aa 4cc 4f
4r	4r	4r	4r
=155	=155	=155	=155
4BB- 4B- 4D	4b- 4B- 4d	4dd 4f 4B-	4bb- 4b- 4d
2.r	2.r	2.r	2.r
==	==	==	==
*-	*-	*-	*-
!!!RWG1: This file contains only pitch and duration data.
!!!RWG2: Transposing instruments are not transposed.
!!!RWG3: Spines may have incompatible meters.
!!!RWG4: Durations of rests and tied notes may be interpreted.
!!!RWG: Key is interpreted using the Humdrum key tool.
!!!GTL: 6 Quartetti ("Apponyi")
!!!AFT: stage1
!!!END: 1997/04/15
!!!KEY: 1711931284
!!!EMD: Converted from MuseData to Humdrum Dec 16, 2000, by Andreas Kornstaedt using muse2kern.
!!!EMD: Manual editing by Craig Sapp, Nov 2001
